svg/clockface/clockfacefatsquaresolid/clock_02_50.svg

<?xml version="1.0" encoding="UTF-8" standalone="no"?>
<svg
   height="1000"
   width="1000"
   version="1.1"
   viewBox="0 0 1000 1000"
   id="svg7"
   sodipodi:docname="clock_02_50.svg"
   xmlns:inkscape="http://www.inkscape.org/namespaces/inkscape"
   xmlns:sodipodi="http://sodipodi.sourceforge.net/DTD/sodipodi-0.dtd"
   xmlns="http://www.w3.org/2000/svg"
   xmlns:svg="http://www.w3.org/2000/svg">
  <defs
     id="defs11" />
  <sodipodi:namedview
     id="namedview9"
     pagecolor="#ffffff"
     bordercolor="#000000"
     borderopacity="0.25"
     inkscape:showpageshadow="2"
     inkscape:pageopacity="0.0"
     inkscape:pagecheckerboard="0"
     inkscape:deskcolor="#d1d1d1" />
  <path
     id="path15"
     style="color:#000000;fill:#000000;stroke-width:60;-inkscape-stroke:none"
     d="M 129 129 L 129 159 L 129 869 L 869 869 L 869 129 L 129 129 z M 303.49414 340.35938 L 338.13477 360.35938 L 500 453.8125 L 601.24414 395.35938 L 635.88477 375.35938 L 675.88477 444.64062 L 641.24414 464.64062 L 520 534.64062 A 40.004 40.004 0 0 1 480 534.64062 L 298.13477 429.64062 L 263.49414 409.64062 L 303.49414 340.35938 z " />
</svg>

<svg xmlns="http://www.w3.org/2000/svg" width="1000" height="1000"><path d="M129 129v740h740V129H129zm174.494 211.36 34.64 20L500 453.811l101.244-58.453 34.64-20 40 69.282-34.64 20-121.244 70a40.004 40.004 0 0 1-40 0l-181.865-105-34.64-20 40-69.282z" style="-inkscape-stroke:none" stroke-width="60"/></svg>
